letmeask/src/assets/images/empty-questions.svg

<svg width="150" height="150" viewBox="0 0 150 150" fill="none" xmlns="http://www.w3.org/2000/svg">
<circle opacity="0.1" cx="75" cy="75" r="75" fill="#835AFD"/>
<path d="M9 29.7229V62.7836V65.145C9 67.7534 11.1145 69.868 13.7229 69.868H44.4221L57.0363 81.5118C57.883 82.2934 59.2331 81.5235 58.9917 80.3968L56.2295 67.5065H64.4946C67.103 67.5065 69.2175 65.392 69.2175 62.7836V29.7229C69.2175 27.1145 67.103 25 64.4946 25H13.7229C11.1145 25 9 27.1145 9 29.7229Z" fill="#835AFD"/>
<path d="M149.218 57.7229V90.7836V93.145C149.218 95.7534 147.103 97.868 144.495 97.868H113.795L101.181 109.512C100.335 110.293 98.9844 109.524 99.2259 108.397L101.988 95.5065H93.7229C91.1145 95.5065 89 93.392 89 90.7836V57.7229C89 55.1145 91.1145 53 93.7229 53H144.495C147.103 53 149.218 55.1145 149.218 57.7229Z" fill="#E559F9"/>
<path d="M42 101.41V118.281V119.486C42 120.817 43.0886 121.896 44.4314 121.896H60.2353L66.7291 127.838C67.1649 128.237 67.86 127.844 67.7357 127.269L66.3137 120.691H70.5686C71.9114 120.691 73 119.612 73 118.281V101.41C73 100.079 71.9114 99 70.5686 99H44.4314C43.0886 99 42 100.079 42 101.41Z" fill="#D67EE2"/>
<circle cx="25.5" cy="46.5" r="3.5" fill="#FEFEFE"/>
<circle cx="38.5" cy="46.5" r="3.5" fill="#FEFEFE"/>
<circle cx="51.5" cy="46.5" r="3.5" fill="#FEFEFE"/>
</svg>

<?xml version="1.0" encoding="utf-8"?>
<!-- Generator: Adobe Illustrator 24.0.1, SVG Export Plug-In . SVG Version: 6.00 Build 0)  -->
<svg version="1.1" id="Layer_1" xmlns="http://www.w3.org/2000/svg" xmlns:xlink="http://www.w3.org/1999/xlink" x="0px" y="0px"
	 viewBox="0 0 150 150" style="enable-background:new 0 0 150 150;" xml:space="preserve">
<style type="text/css">
	.st0{opacity:0.1;fill:#2E2EFD;enable-background:new    ;}
	.st1{fill:#2E2EFD;}
	.st2{fill:#00DAF9;}
	.st3{fill:#000125;}
	.st4{fill:#EEFDFF;}
</style>
<circle class="st0" cx="75" cy="75" r="75"/>
<path class="st1" d="M9,29.7v33.1v2.4c0,2.6,2.1,4.7,4.7,4.7h30.7L57,81.5c0.8,0.8,2.2,0,2-1.1l-2.8-12.9h8.3c2.6,0,4.7-2.1,4.7-4.7
	V29.7c0-2.6-2.1-4.7-4.7-4.7H13.7C11.1,25,9,27.1,9,29.7z"/>
<path class="st2" d="M149.2,57.7v33.1v2.4c0,2.6-2.1,4.7-4.7,4.7h-30.7l-12.6,11.6c-0.8,0.8-2.2,0-2-1.1l2.8-12.9h-8.3
	c-2.6,0-4.7-2.1-4.7-4.7V57.7c0-2.6,2.1-4.7,4.7-4.7h50.8C147.1,53,149.2,55.1,149.2,57.7z"/>
<path class="st3" d="M42,101.4v16.9v1.2c0,1.3,1.1,2.4,2.4,2.4h15.8l6.5,5.9c0.4,0.4,1.1,0,1-0.6l-1.4-6.6h4.3
	c1.3,0,2.4-1.1,2.4-2.4v-16.9c0-1.3-1.1-2.4-2.4-2.4H44.4C43.1,99,42,100.1,42,101.4z"/>
<circle class="st4" cx="25.5" cy="46.5" r="3.5"/>
<circle class="st4" cx="38.5" cy="46.5" r="3.5"/>
<circle class="st4" cx="51.5" cy="46.5" r="3.5"/>
</svg>
